icons/themes/default/list.svg

<svg viewBox="0 0 20 20" fill="none" xmlns="http://www.w3.org/2000/svg">
<g id="20x20 / List">
<path id="Union" fill-rule="evenodd" clip-rule="evenodd" d="M5.05001 2.5C3.64169 2.5 2.50001 3.64167 2.50001 5.05V6.39601C2.50001 7.80434 3.64169 8.94601 5.05001 8.94601H14.9528C16.3611 8.94601 17.5028 7.80434 17.5028 6.39601V5.05C17.5028 3.64167 16.3611 2.5 14.9528 2.5H5.05001ZM3.60001 5.05C3.60001 4.24919 4.2492 3.6 5.05001 3.6H14.9528C15.7536 3.6 16.4028 4.24919 16.4028 5.05V6.39601C16.4028 7.19682 15.7536 7.84601 14.9528 7.84601H5.05001C4.2492 7.84601 3.60001 7.19682 3.60001 6.39601V5.05ZM5.05 11.0538C3.64167 11.0538 2.5 12.1955 2.5 13.6038V14.9498C2.5 16.3581 3.64167 17.4998 5.05 17.4998H14.9528C16.3611 17.4998 17.5028 16.3581 17.5028 14.9498V13.6038C17.5028 12.1955 16.3611 11.0538 14.9528 11.0538H5.05ZM3.6 13.6038C3.6 12.803 4.24919 12.1538 5.05 12.1538H14.9528C15.7536 12.1538 16.4028 12.803 16.4028 13.6038V14.9498C16.4028 15.7506 15.7536 16.3998 14.9528 16.3998H5.05C4.24919 16.3998 3.6 15.7506 3.6 14.9498V13.6038Z" fill="currentColor"/>
</g>
</svg>

<svg xmlns="http://www.w3.org/2000/svg" fill="none" viewBox="0 0 20 20">
  <path fill="currentColor" fill-rule="evenodd" d="M5.05 2.5A2.55 2.55 0 0 0 2.5 5.05v1.346a2.55 2.55 0 0 0 2.55 2.55h9.903a2.55 2.55 0 0 0 2.55-2.55V5.05a2.55 2.55 0 0 0-2.55-2.55H5.05ZM3.6 5.05c0-.8.65-1.45 1.45-1.45h9.903c.8 0 1.45.65 1.45 1.45v1.346c0 .8-.65 1.45-1.45 1.45H5.05c-.8 0-1.45-.65-1.45-1.45V5.05Zm1.45 6.004a2.55 2.55 0 0 0-2.55 2.55v1.346a2.55 2.55 0 0 0 2.55 2.55h9.903a2.55 2.55 0 0 0 2.55-2.55v-1.346a2.55 2.55 0 0 0-2.55-2.55H5.05Zm-1.45 2.55c0-.801.65-1.45 1.45-1.45h9.903c.8 0 1.45.649 1.45 1.45v1.346c0 .8-.65 1.45-1.45 1.45H5.05c-.8 0-1.45-.65-1.45-1.45v-1.346Z" clip-rule="evenodd"/>
</svg>
